X: 1
T:Hanged Man's Reel, The
S:irtrad-l, Edward A Beimborn, 9/94
D:Aly Bain Version from "Far From Home"
N:Use AEAC\# Tuning
Z:Converted from abc code by Dan Beimborn
M:C
K:A
P:A
A,AAB c2 cc|c2 cB ABcA|EAAc BABc|dcBA cAAB|
c2 cc c2 cB|ABcA EAAc|BBGB A2 A2:|
P:B
A,AAB c2 cc|BABd c2 c2|A,AAB c2 cc|BBGB A2 A2:|
P:C
e2 c2 A2 ee|eccc BcAc|e2 c2 A2 ee|eccc BcBa:|
P:D
B2 z2 B2 BB|BBGB AGAc|B2 GB BBGB|1 BBGB A4:|2 BBGB A2||
P:E
cAEA,|A2 BABd c2|A2 A2 cAEA,|A,2 E2 A2|BABc A2:|
P:F
A,A,|+C2E2++CE++AE+ +D2F2+ +DF++AE+|+C2E2+ +CE++AE+ +B,2E2+ +B,E++A,E+|
+C2E2+ +CE++AE+ +D2F2+ +DF++AE+|CEB,E A,2:|
